public/img/svg/advantage-5.svg

<svg fill="none" height="73" viewBox="0 0 74 73" width="74" xmlns="http://www.w3.org/2000/svg"><g fill="#000"><path d="m36.6535 50.2709c-1.6975 0-3.3569-.4982-4.7683-1.4318-1.4114-.9335-2.5115-2.2604-3.1611-3.8129-.6496-1.5524-.8195-3.2607-.4884-4.9088.3312-1.648 1.1486-3.1619 2.3489-4.35 1.2003-1.1882 2.7296-1.9974 4.3945-2.3252s3.3906-.1596 4.9589.4835c1.5682.643 2.9087 1.7319 3.8517 3.1291.9431 1.3972 1.4465 3.0398 1.4465 4.7201-.0026 2.2525-.9077 4.412-2.5167 6.0048-1.609 1.5927-3.7905 2.4887-6.066 2.4912zm0-15.046c-1.3087 0-2.588.3841-3.6761 1.1039-1.0882.7197-1.9363 1.7427-2.4371 2.9395-.5008 1.1969-.6319 2.5139-.3766 3.7845.2554 1.2706.8856 2.4377 1.8109 3.3537.9254.9161 2.1045 1.5399 3.388 1.7926 1.2836.2528 2.614.1231 3.8231-.3727s2.2425-1.3353 2.9695-2.4124c.7271-1.0772 1.1152-2.3436 1.1152-3.6391-.0021-1.7365-.6999-3.4014-1.9404-4.6293-1.2404-1.2279-2.9222-1.9187-4.6765-1.9207z"/><path d="m62.4723 20.9253c-1.6974 0-3.3568-.4982-4.7682-1.4318-1.4115-.9335-2.5115-2.2604-3.1611-3.8129-.6496-1.5524-.8196-3.2607-.4884-4.9087.3311-1.6481 1.1486-3.16194 2.3489-4.35013 1.2003-1.18818 2.7296-1.99735 4.3944-2.32517 1.6649-.32782 3.3906-.15957 4.9589.48347s2.9087 1.732 3.8518 3.12916 1.4464 3.03977 1.4464 4.72017c-.0026 2.2524-.9076 4.4119-2.5167 6.0047-1.609 1.5927-3.7905 2.4887-6.066 2.4912zm0-15.046c-1.3087 0-2.588.38415-3.6761 1.10388s-1.9362 1.74271-2.4371 2.93958c-.5008 1.19684-.6318 2.51384-.3765 3.78444s.8855 2.4377 1.8109 3.3537c.9254.9161 2.1044 1.5399 3.388 1.7926 1.2835.2528 2.6139.1231 3.823-.3727 1.2091-.4957 2.2425-1.3353 2.9696-2.4124.7271-1.0772 1.1151-2.3436 1.1151-3.639-.002-1.7366-.6999-3.40143-1.9403-4.62936-1.2405-1.22793-2.9223-1.91868-4.6766-1.92074z"/><path d="m10.8347 35.9713c-1.69755 0-3.35692-.4983-4.76834-1.4319-1.41142-.9335-2.51148-2.2604-3.16108-3.8129-.64961-1.5524-.81957-3.2607-.48841-4.9087.33117-1.6481 1.14859-3.1619 2.3489-4.3501s2.7296-1.9974 4.39448-2.3252c1.66485-.3278 3.39055-.1596 4.95885.4835 1.5683.643 2.9087 1.732 3.8518 3.1291.9431 1.3972 1.4464 3.0398 1.4464 4.7202-.0026 2.2524-.9076 4.4119-2.5166 6.0047-1.609 1.5927-3.7906 2.4887-6.066 2.4913zm0-15.0461c-1.30875 0-2.58805.3842-3.6762 1.1039-1.08814.7197-1.93624 1.7427-2.43706 2.9396-.50082 1.1968-.63185 2.5138-.37654 3.7844.25532 1.2706.88551 2.4377 1.8109 3.3537.92539.9161 2.10441 1.5399 3.38796 1.7926 1.28354.2528 2.61394.1231 3.82304-.3727 1.2091-.4957 2.2425-1.3353 2.9696-2.4124.7271-1.0772 1.1151-2.3436 1.1151-3.639-.002-1.7366-.6998-3.4014-1.9403-4.6294-1.2405-1.2279-2.9223-1.9186-4.6765-1.9207z"/><path d="m62.4744 41.2341c-.2607 0-.5107-.1025-.6951-.285-.1843-.1824-.2878-.4299-.2878-.688v-2.8897c0-.258.1035-.5055.2878-.688.1844-.1825.4344-.285.6951-.285.2606 0 .5106.1025.695.285.1843.1825.2879.43.2879.688v2.8897c0 .2581-.1036.5056-.2879.688-.1844.1825-.4344.285-.695.285z"/><path d="m62.4744 68.3022c-.2607 0-.5107-.1025-.6951-.285-.1843-.1825-.2878-.43-.2878-.688v-10.6151c0-.2581.1035-.5056.2878-.688.1844-.1825.4344-.285.6951-.285.2606 0 .5106.1025.695.285.1843.1824.2879.4299.2879.688v10.6151c0 .258-.1036.5055-.2879.688-.1844.1825-.4344.285-.695.285z"/><path d="m62.4744 50.8763c-.2607 0-.5107-.1025-.6951-.285-.1843-.1824-.2878-.4299-.2878-.688v-2.8313c0-.2581.1035-.5056.2878-.688.1844-.1825.4344-.285.6951-.285.2606 0 .5106.1025.695.285.1843.1824.2879.4299.2879.688v2.8313c0 .2581-.1036.5056-.2879.688-.1844.1825-.4344.285-.695.285z"/><path d="m62.4744 31.5335c-.2607 0-.5107-.1025-.6951-.2849-.1843-.1825-.2878-.43-.2878-.688v-10.6054c0-.2581.1035-.5056.2878-.688.1844-.1825.4344-.285.6951-.285.2606 0 .5106.1025.695.285.1843.1824.2879.4299.2879.688v10.6054c0 .258-.1036.5055-.2879.688-.1844.1824-.4344.2849-.695.2849z"/><path d="m36.6536 68.2992c-.2607 0-.5107-.1025-.6951-.2849-.1843-.1825-.2878-.43-.2878-.688v-18.0283c0-.258.1035-.5055.2878-.688.1844-.1824.4344-.2849.6951-.2849.2606 0 .5106.1025.695.2849.1843.1825.2879.43.2879.688v18.0283c0 .258-.1036.5055-.2879.688-.1844.1824-.4344.2849-.695.2849z"/><path d="m10.8347 68.2992c-.2607 0-.5107-.1025-.695-.285-.18434-.1824-.28789-.4299-.28789-.688v-32.328c0-.258.10355-.5055.28789-.688.1843-.1824.4343-.2849.695-.2849s.5107.1025.695.2849c.1844.1825.2879.43.2879.688v32.328c0 .2581-.1035.5056-.2879.688-.1843.1825-.4343.285-.695.285z"/><path d="m42.0712 37.4785c-.1813-.0002-.3589-.0499-.5133-.1438-.1545-.0938-.2797-.2281-.3619-.388s-.1181-.3391-.1038-.5179c.0143-.1789.0782-.3503.1848-.4954l14.3464-19.5684c.1532-.2089.3839-.349.6414-.3896.2575-.0405.5207.0219.7317.1736.2111.1516.3526.3799.3935.6348s-.0221.5155-.1753.7244l-14.3503 19.5723c-.0913.1234-.2108.2237-.3486.2929-.1378.0691-.2901.1051-.4446.1051z"/><path d="m30.019 39.1323c-.1769.0003-.3506-.0471-.5023-.1371l-12.4042-7.3187c-.1109-.0655-.2077-.152-.2848-.2545s-.1331-.219-.1647-.3429c-.0316-.124-.0383-.2528-.0196-.3793.0187-.1264.0624-.248.1285-.3578.1336-.2216.3507-.3817.6035-.4449.1252-.0313.2554-.0379.3831-.0194.1278.0185.2506.0617.3615.1272l12.4032 7.3187c.1849.1091.3286.2753.4088.473.0803.1978.0927.4162.0355.6216-.0573.2054-.1811.3866-.3525.5156-.1713.129-.3807.1988-.596.1985z"/><path d="m70.0721 68.2992h-66.83725c-.26068 0-.51068-.1025-.69501-.285-.18433-.1824-.28789-.4299-.28789-.688 0-.258.10356-.5055.28789-.688.18433-.1824.43433-.2849.69501-.2849h66.83725c.2607 0 .5107.1025.6951.2849.1843.1825.2878.43.2878.688 0 .2581-.1035.5056-.2878.688-.1844.1825-.4344.285-.6951.285z"/></g></svg>

<svg width="74" height="73" viewBox="0 0 74 73" fill="none" xmlns="http://www.w3.org/2000/svg">
<path d="M36.6535 50.2709C34.956 50.2709 33.2966 49.7727 31.8852 48.8391C30.4738 47.9056 29.3737 46.5787 28.7241 45.0262C28.0745 43.4738 27.9046 41.7655 28.2357 40.1174C28.5669 38.4694 29.3843 36.9555 30.5846 35.7674C31.7849 34.5792 33.3142 33.77 34.9791 33.4422C36.644 33.1144 38.3697 33.2826 39.938 33.9257C41.5062 34.5687 42.8467 35.6576 43.7897 37.0548C44.7328 38.452 45.2362 40.0946 45.2362 41.7749C45.2336 44.0274 44.3285 46.1869 42.7195 47.7797C41.1105 49.3724 38.929 50.2684 36.6535 50.2709ZM36.6535 35.2249C35.3448 35.2249 34.0655 35.609 32.9774 36.3288C31.8892 37.0485 31.0411 38.0715 30.5403 39.2683C30.0395 40.4652 29.9084 41.7822 30.1637 43.0528C30.4191 44.3234 31.0493 45.4905 31.9746 46.4065C32.9 47.3226 34.0791 47.9464 35.3626 48.1991C36.6462 48.4519 37.9766 48.3222 39.1857 47.8264C40.3948 47.3306 41.4282 46.4911 42.1552 45.414C42.8823 44.3368 43.2704 43.0704 43.2704 41.7749C43.2683 40.0384 42.5705 38.3735 41.33 37.1456C40.0896 35.9177 38.4078 35.2269 36.6535 35.2249Z" fill="black"/>
<path d="M62.4723 20.9253C60.7749 20.9253 59.1155 20.4271 57.7041 19.4935C56.2926 18.56 55.1926 17.2331 54.543 15.6806C53.8934 14.1282 53.7234 12.4199 54.0546 10.7719C54.3857 9.1238 55.2032 7.60996 56.4035 6.42177C57.6038 5.23359 59.1331 4.42442 60.7979 4.0966C62.4628 3.76878 64.1885 3.93703 65.7568 4.58007C67.3251 5.22311 68.6655 6.31207 69.6086 7.70923C70.5517 9.10639 71.055 10.749 71.055 12.4294C71.0524 14.6818 70.1474 16.8413 68.5383 18.4341C66.9293 20.0268 64.7478 20.9228 62.4723 20.9253ZM62.4723 5.8793C61.1636 5.8793 59.8843 6.26345 58.7962 6.98318C57.7081 7.70291 56.86 8.72589 56.3591 9.92276C55.8583 11.1196 55.7273 12.4366 55.9826 13.7072C56.2379 14.9778 56.8681 16.1449 57.7935 17.0609C58.7189 17.977 59.8979 18.6008 61.1815 18.8535C62.465 19.1063 63.7954 18.9766 65.0045 18.4808C66.2136 17.9851 67.247 17.1455 67.9741 16.0684C68.7012 14.9912 69.0892 13.7248 69.0892 12.4294C69.0872 10.6928 68.3893 9.02797 67.1489 7.80004C65.9084 6.57211 64.2266 5.88136 62.4723 5.8793Z" fill="black"/>
<path d="M10.8347 35.9713C9.13715 35.9713 7.47778 35.473 6.06636 34.5394C4.65494 33.6059 3.55488 32.279 2.90528 30.7265C2.25567 29.1741 2.08571 27.4658 2.41687 25.8178C2.74804 24.1697 3.56546 22.6559 4.76577 21.4677C5.96608 20.2795 7.49537 19.4703 9.16025 19.1425C10.8251 18.8147 12.5508 18.9829 14.1191 19.626C15.6874 20.269 17.0278 21.358 17.9709 22.7551C18.914 24.1523 19.4173 25.7949 19.4173 27.4753C19.4147 29.7277 18.5097 31.8872 16.9007 33.48C15.2917 35.0727 13.1101 35.9687 10.8347 35.9713ZM10.8347 20.9252C9.52595 20.9252 8.24665 21.3094 7.1585 22.0291C6.07036 22.7488 5.22226 23.7718 4.72144 24.9687C4.22062 26.1655 4.08959 27.4825 4.3449 28.7531C4.60022 30.0237 5.23041 31.1908 6.1558 32.1068C7.08119 33.0229 8.26021 33.6467 9.54376 33.8994C10.8273 34.1522 12.1577 34.0225 13.3668 33.5267C14.5759 33.031 15.6093 32.1914 16.3364 31.1143C17.0635 30.0371 17.4515 28.7707 17.4515 27.4753C17.4495 25.7387 16.7517 24.0739 15.5112 22.8459C14.2707 21.618 12.5889 20.9273 10.8347 20.9252Z" fill="black"/>
<path d="M62.4744 41.2341C62.2137 41.2341 61.9637 41.1316 61.7793 40.9491C61.595 40.7667 61.4915 40.5192 61.4915 40.2611V37.3714C61.4915 37.1134 61.595 36.8659 61.7793 36.6834C61.9637 36.5009 62.2137 36.3984 62.4744 36.3984C62.735 36.3984 62.985 36.5009 63.1694 36.6834C63.3537 36.8659 63.4573 37.1134 63.4573 37.3714V40.2611C63.4573 40.5192 63.3537 40.7667 63.1694 40.9491C62.985 41.1316 62.735 41.2341 62.4744 41.2341Z" fill="black"/>
<path d="M62.4744 68.3022C62.2137 68.3022 61.9637 68.1997 61.7793 68.0172C61.595 67.8347 61.4915 67.5872 61.4915 67.3292V56.7141C61.4915 56.456 61.595 56.2085 61.7793 56.0261C61.9637 55.8436 62.2137 55.7411 62.4744 55.7411C62.735 55.7411 62.985 55.8436 63.1694 56.0261C63.3537 56.2085 63.4573 56.456 63.4573 56.7141V67.3292C63.4573 67.5872 63.3537 67.8347 63.1694 68.0172C62.985 68.1997 62.735 68.3022 62.4744 68.3022Z" fill="black"/>
<path d="M62.4744 50.8763C62.2137 50.8763 61.9637 50.7738 61.7793 50.5913C61.595 50.4089 61.4915 50.1614 61.4915 49.9033V47.072C61.4915 46.8139 61.595 46.5664 61.7793 46.384C61.9637 46.2015 62.2137 46.099 62.4744 46.099C62.735 46.099 62.985 46.2015 63.1694 46.384C63.3537 46.5664 63.4573 46.8139 63.4573 47.072V49.9033C63.4573 50.1614 63.3537 50.4089 63.1694 50.5913C62.985 50.7738 62.735 50.8763 62.4744 50.8763Z" fill="black"/>
<path d="M62.4744 31.5335C62.2137 31.5335 61.9637 31.431 61.7793 31.2486C61.595 31.0661 61.4915 30.8186 61.4915 30.5606V19.9552C61.4915 19.6971 61.595 19.4496 61.7793 19.2672C61.9637 19.0847 62.2137 18.9822 62.4744 18.9822C62.735 18.9822 62.985 19.0847 63.1694 19.2672C63.3537 19.4496 63.4573 19.6971 63.4573 19.9552V30.5606C63.4573 30.8186 63.3537 31.0661 63.1694 31.2486C62.985 31.431 62.735 31.5335 62.4744 31.5335Z" fill="black"/>
<path d="M36.6536 68.2992C36.3929 68.2992 36.1429 68.1967 35.9585 68.0143C35.7742 67.8318 35.6707 67.5843 35.6707 67.3263V49.298C35.6707 49.04 35.7742 48.7925 35.9585 48.61C36.1429 48.4276 36.3929 48.3251 36.6536 48.3251C36.9142 48.3251 37.1642 48.4276 37.3486 48.61C37.5329 48.7925 37.6365 49.04 37.6365 49.298V67.3263C37.6365 67.5843 37.5329 67.8318 37.3486 68.0143C37.1642 68.1967 36.9142 68.2992 36.6536 68.2992Z" fill="black"/>
<path d="M10.8347 68.2992C10.574 68.2992 10.324 68.1967 10.1397 68.0142C9.95536 67.8318 9.85181 67.5843 9.85181 67.3262V34.9982C9.85181 34.7402 9.95536 34.4927 10.1397 34.3102C10.324 34.1278 10.574 34.0253 10.8347 34.0253C11.0954 34.0253 11.3454 34.1278 11.5297 34.3102C11.7141 34.4927 11.8176 34.7402 11.8176 34.9982V67.3262C11.8176 67.5843 11.7141 67.8318 11.5297 68.0142C11.3454 68.1967 11.0954 68.2992 10.8347 68.2992Z" fill="black"/>
<path d="M42.0712 37.4785C41.8899 37.4783 41.7123 37.4286 41.5579 37.3347C41.4034 37.2409 41.2782 37.1066 41.196 36.9467C41.1138 36.7868 41.0779 36.6076 41.0922 36.4288C41.1065 36.2499 41.1704 36.0785 41.277 35.9334L55.6234 16.365C55.7766 16.1561 56.0073 16.016 56.2648 15.9754C56.5223 15.9349 56.7855 15.9973 56.9965 16.149C57.2076 16.3006 57.3491 16.5289 57.39 16.7838C57.4309 17.0387 57.3679 17.2993 57.2147 17.5082L42.8644 37.0805C42.7731 37.2039 42.6536 37.3042 42.5158 37.3734C42.378 37.4425 42.2257 37.4785 42.0712 37.4785Z" fill="black"/>
<path d="M30.019 39.1323C29.8421 39.1326 29.6684 39.0852 29.5167 38.9952L17.1125 31.6765C17.0016 31.611 16.9048 31.5245 16.8277 31.422C16.7506 31.3195 16.6946 31.203 16.663 31.0791C16.6314 30.9551 16.6247 30.8263 16.6434 30.6998C16.6621 30.5734 16.7058 30.4518 16.7719 30.342C16.9055 30.1204 17.1226 29.9603 17.3754 29.8971C17.5006 29.8658 17.6308 29.8592 17.7585 29.8777C17.8863 29.8962 18.0091 29.9394 18.12 30.0049L30.5232 37.3236C30.7081 37.4327 30.8518 37.5989 30.932 37.7966C31.0123 37.9944 31.0247 38.2128 30.9675 38.4182C30.9102 38.6236 30.7864 38.8048 30.615 38.9338C30.4437 39.0628 30.2343 39.1326 30.019 39.1323Z" fill="black"/>
<path d="M70.0721 68.2992H3.23485C2.97417 68.2992 2.72417 68.1967 2.53984 68.0142C2.35551 67.8318 2.25195 67.5843 2.25195 67.3262C2.25195 67.0682 2.35551 66.8207 2.53984 66.6382C2.72417 66.4558 2.97417 66.3533 3.23485 66.3533H70.0721C70.3328 66.3533 70.5828 66.4558 70.7672 66.6382C70.9515 66.8207 71.055 67.0682 71.055 67.3262C71.055 67.5843 70.9515 67.8318 70.7672 68.0142C70.5828 68.1967 70.3328 68.2992 70.0721 68.2992Z" fill="black"/>
</svg>
